X: 28752
T: My Home From Afar
R: reel
M: 4/4
K: Gdorian
|:d2 cA GAB^c|d2 Ad ^FdAd|c2 Gc EGcd|ed^ce agec|
dBcA GAB^c|d2 Ad FdAd|cBcd edef|geag ed d2:|
e|:fefa g2 ^fg|ad^fd cAdc|AD^FD (3EFG|c2 ed ^cABc|
d2 Ad ^FdAd|cEGc e^fge|a^fge f2 ed|cAGc Ad d2:|

